Komodo/apps/scalable/wordpress.svg

<?xml version="1.0" encoding="UTF-8" standalone="no"?>
<!-- Created with Inkscape (http://www.inkscape.org/) -->

<svg
   xmlns:dc="http://purl.org/dc/elements/1.1/"
   xmlns:cc="http://creativecommons.org/ns#"
   xmlns:rdf="http://www.w3.org/1999/02/22-rdf-syntax-ns#"
   xmlns:svg="http://www.w3.org/2000/svg"
   xmlns="http://www.w3.org/2000/svg"
   xmlns:xlink="http://www.w3.org/1999/xlink"
   xmlns:sodipodi="http://sodipodi.sourceforge.net/DTD/sodipodi-0.dtd"
   xmlns:inkscape="http://www.inkscape.org/namespaces/inkscape"
   width="96"
   height="96"
   id="svg11037"
   version="1.1"
   inkscape:version="0.48.3.1 r9886"
   sodipodi:docname="wordpress.svg">
  <defs
     id="defs11039">
    <linearGradient
       y2="1046.1001"
       x2="47.999954"
       y1="962.62189"
       x1="47.999954"
       gradientTransform="matrix(1.15,0,0,1.15,-7.1999462,-150.65291)"
       gradientUnits="userSpaceOnUse"
       id="linearGradient3886"
       xlink:href="#linearGradient3795"
       inkscape:collect="always" />
    <linearGradient
       id="linearGradient3795">
      <stop
         style="stop-color:#13a6fd;stop-opacity:1;"
         offset="0"
         id="stop3797" />
      <stop
         style="stop-color:#2975b6;stop-opacity:1;"
         offset="1"
         id="stop3799" />
    </linearGradient>
    <linearGradient
       y2="1046.1001"
       x2="47.999954"
       y1="962.62189"
       x1="47.999954"
       gradientTransform="matrix(1.15,0,0,1.15,-7.1999462,-150.65292)"
       gradientUnits="userSpaceOnUse"
       id="linearGradient11642"
       xlink:href="#linearGradient3645"
       inkscape:collect="always" />
    <linearGradient
       x1="48"
       y1="90"
       x2="48"
       y2="5.9877172"
       id="linearGradient3617"
       xlink:href="#linearGradient3645"
       gradientUnits="userSpaceOnUse"
       gradientTransform="translate(19.525424,-25.220339)" />
    <linearGradient
       id="linearGradient3645">
      <stop
         id="stop3647"
         style="stop-color:#0f466f;stop-opacity:1"
         offset="0" />
      <stop
         id="stop3649"
         style="stop-color:#2e72a7;stop-opacity:1"
         offset="1" />
    </linearGradient>
    <linearGradient
       y2="5.9877172"
       x2="48"
       y1="90"
       x1="48"
       gradientTransform="translate(-95.477168,943.24795)"
       gradientUnits="userSpaceOnUse"
       id="linearGradient3046"
       xlink:href="#linearGradient3645"
       inkscape:collect="always" />
    <linearGradient
       x1="48"
       y1="84"
       x2="48"
       y2="12"
       id="linearGradient2928"
       xlink:href="#linearGradient4062"
       gradientUnits="userSpaceOnUse" />
    <linearGradient
       id="linearGradient4062">
      <stop
         id="stop4064"
         style="stop-color:#dfdfdf;stop-opacity:1"
         offset="0" />
      <stop
         id="stop4066"
         style="stop-color:#ffffff;stop-opacity:1"
         offset="1" />
    </linearGradient>
    <clipPath
       clipPathUnits="userSpaceOnUse"
       id="clipPath3009">
      <path
         id="path3011"
         d="m -2,956.36218 -96,0 0,33.5624 96,25.68742 0,-59.24982 z"
         style="opacity:0.15;fill:#ffffff;fill-opacity:1;stroke:none"
         inkscape:connector-curvature="0" />
    </clipPath>
  </defs>
  <sodipodi:namedview
     id="base"
     pagecolor="#ffffff"
     bordercolor="#666666"
     borderopacity="1.0"
     inkscape:pageopacity="0.0"
     inkscape:pageshadow="2"
     inkscape:zoom="3.959798"
     inkscape:cx="33.538031"
     inkscape:cy="59.964634"
     inkscape:document-units="px"
     inkscape:current-layer="layer1"
     showgrid="false"
     inkscape:window-width="1280"
     inkscape:window-height="750"
     inkscape:window-x="0"
     inkscape:window-y="22"
     inkscape:window-maximized="1"
     showguides="true"
     inkscape:guide-bbox="true">
    <sodipodi:guide
       orientation="0,1"
       position="-24.748737,0"
       id="guide11064" />
    <sodipodi:guide
       orientation="0,1"
       position="-23.233509,96"
       id="guide11066" />
    <sodipodi:guide
       orientation="1,0"
       position="0,54.800776"
       id="guide11068" />
    <sodipodi:guide
       orientation="1,0"
       position="96,51.012704"
       id="guide11070" />
    <sodipodi:guide
       orientation="0,1"
       position="-18.94036,48"
       id="guide11072" />
    <sodipodi:guide
       orientation="1,0"
       position="48,79.296975"
       id="guide11074" />
    <sodipodi:guide
       orientation="1,0"
       position="2,75.508903"
       id="guide11076" />
    <sodipodi:guide
       orientation="0,1"
       position="-77.27667,2"
       id="guide11078" />
    <sodipodi:guide
       orientation="1,0"
       position="94,77.781746"
       id="guide11080" />
    <sodipodi:guide
       orientation="0,1"
       position="-65.912454,94"
       id="guide11082" />
  </sodipodi:namedview>
  <metadata
     id="metadata11042">
    <rdf:RDF>
      <cc:Work
         rdf:about="">
        <dc:format>image/svg+xml</dc:format>
        <dc:type
           rdf:resource="http://purl.org/dc/dcmitype/StillImage" />
        <dc:title />
      </cc:Work>
    </rdf:RDF>
  </metadata>
  <g
     inkscape:label="Layer 1"
     inkscape:groupmode="layer"
     id="layer1"
     transform="translate(0,-956.36218)">
    <rect
       x="2"
       y="958.36218"
       width="92"
       height="92"
       style="fill:url(#linearGradient11642);fill-opacity:1.0"
       id="rect3867"
       rx="25"
       ry="25" />
    <g
       transform="translate(0,956.36218)"
       id="layer4">
      <path
         d="M 47.989186,12 C 28.140631,12 12,28.162259 12,48.010814 12,67.86023 28.140631,84 47.989186,84 67.838606,84 84,67.86023 84,48.010814 84,28.162259 67.838606,12 47.989186,12 z m 0,3.633524 c 8.426314,0 16.107756,3.224319 21.866026,8.499849 -0.139285,-0.0087 -0.267324,-0.02163 -0.410934,-0.02163 -3.179334,0 -5.450286,2.777916 -5.450286,5.753079 0,2.66718 1.539057,4.92429 3.179333,7.591469 1.231073,2.155026 2.681887,4.909583 2.681887,8.910784 0,2.769264 -0.825329,6.262638 -2.465606,10.468009 L 64.145389,67.62752 52.466206,32.827876 c 1.948261,-0.102084 3.698408,-0.302793 3.698408,-0.302793 1.744091,-0.206765 1.52781,-2.762343 -0.216281,-2.660259 0,0 -5.223623,0.410934 -8.607991,0.410934 -3.180198,0 -8.543106,-0.410934 -8.543106,-0.410934 -1.744956,-0.102084 -1.939609,2.557309 -0.194653,2.660259 0,0 1.651523,0.200709 3.395615,0.302793 L 47.037549,46.648243 39.943527,67.88705 28.177831,32.827876 c 1.949991,-0.102084 3.698408,-0.302793 3.698408,-0.302793 1.742361,-0.206765 1.52781,-2.762343 -0.216281,-2.660259 0,0 -5.245251,0.410934 -8.629619,0.410934 -0.607317,0 -1.316719,-0.01903 -2.076299,-0.04326 C 26.741724,21.447157 36.682007,15.63352 47.989186,15.63352 z m 28.419345,16.848302 c 2.525299,4.609385 3.957945,9.902217 3.957945,15.528988 0,11.940451 -6.469402,22.355686 -16.091318,27.965156 l 9.884049,-28.570743 c 1.847041,-4.617171 2.465605,-8.309523 2.465605,-11.592671 0,-1.191276 -0.077,-2.300366 -0.216281,-3.33073 z M 18.445179,34.839291 33.866026,77.14389 C 23.06927,71.89864 15.633524,60.82158 15.633524,48.010814 c 0,-4.692436 1.016521,-9.146098 2.811655,-13.171523 z m 30.127966,16.004806 9.948934,27.251423 c 0.06575,0.16005 0.129768,0.29415 0.216281,0.43257 -3.363605,1.18435 -6.979826,1.83839 -10.749174,1.83839 -3.175873,0 -6.227167,-0.46631 -9.127065,-1.31932 l 9.711024,-28.203063 z"
         inkscape:connector-curvature="0"
         id="path4048"
         style="fill:url(#linearGradient2928);fill-opacity:1;fill-rule:nonzero;stroke:none" />
      <path
         d="m 48,11 c -19.848555,0 -36,16.151445 -36,36 0,0.165572 0.02901,0.334951 0.03125,0.5 C 12.301875,27.882716 28.319816,12 48,12 67.681042,12 83.697779,27.882716 83.96875,47.5 83.970992,47.334951 84,47.165572 84,47 84,27.151445 67.84942,11 48,11 z M 68.75,23.15625 C 65.933394,23.520336 64,26.117608 64,28.875 c 0,0.150633 0.02169,0.289335 0.03125,0.4375 0.261137,-2.75665 2.425624,-5.1875 5.40625,-5.1875 0.14361,0 0.266965,-0.0087 0.40625,0 C 69.483858,23.795279 69.124629,23.469659 68.75,23.15625 z M 31.65625,28.875 c 0,0 -5.240632,0.40625 -8.625,0.40625 -0.404785,0 -0.894884,-0.01844 -1.375,-0.03125 -0.232144,0.325588 -0.467232,0.634396 -0.6875,0.96875 0.75958,0.02423 1.455183,0.0625 2.0625,0.0625 3.384368,0 8.625,-0.40625 8.625,-0.40625 0.68036,-0.03982 1.123021,0.309415 1.3125,0.78125 0.286127,-0.80606 -0.172612,-1.847969 -1.3125,-1.78125 z m 6.84375,0 c -0.910418,0.130617 -1.286765,1.114654 -1.03125,1.84375 0.177837,-0.500828 0.647414,-0.884487 1.34375,-0.84375 0,0 5.351052,0.40625 8.53125,0.40625 3.384368,0 8.59375,-0.40625 8.59375,-0.40625 0.682889,-0.03997 1.155274,0.306866 1.34375,0.78125 0.278529,-0.804862 -0.208587,-1.847693 -1.34375,-1.78125 0,0 -5.209382,0.40625 -8.59375,0.40625 -3.180198,0 -8.53125,-0.40625 -8.53125,-0.40625 -0.10906,-0.0064 -0.215647,-0.0139 -0.3125,0 z m 37.90625,3.59375 c 0.122842,0.908755 0.2029,1.903893 0.21875,2.9375 0.0045,-0.197804 0,-0.398935 0,-0.59375 0,-0.744275 -0.03723,-1.444042 -0.09375,-2.125 -0.0392,-0.07289 -0.08525,-0.1462 -0.125,-0.21875 z M 28.5,32.78125 c -0.117277,0.0069 -0.193366,0.02501 -0.3125,0.03125 L 39.9375,67.875 47.03125,46.65625 46.84375,46.1875 39.9375,66.875 28.5,32.78125 z m 24.28125,0 c -0.117196,0.0069 -0.193472,0.02501 -0.3125,0.03125 L 64.15625,67.625 67.375,56.84375 c 1.640277,-4.205371 2.46875,-7.699486 2.46875,-10.46875 0,-0.141552 -0.02769,-0.26779 -0.03125,-0.40625 -0.10727,2.669791 -0.911879,5.963587 -2.4375,9.875 L 64.15625,66.625 52.78125,32.78125 z m 27.5625,14.625 c -0.143825,11.581115 -6.362309,21.677944 -15.625,27.28125 l -0.4375,1.28125 C 73.903166,70.35928 80.375,59.940451 80.375,48 c 0,-0.199592 -0.02766,-0.395014 -0.03125,-0.59375 z m -64.6875,0.0625 C 15.653331,47.646259 15.625,47.821792 15.625,48 c 0,12.810766 7.453244,23.911 18.25,29.15625 l -0.4375,-1.25 C 23.014171,70.64072 15.832192,59.903557 15.65625,47.46875 z M 58.375,77.65625 C 55.117272,78.759354 51.630799,79.375 48,79.375 c -3.061277,0 -6.006742,-0.423519 -8.8125,-1.21875 L 38.875,79.0625 c 2.899898,0.85301 5.949127,1.3125 9.125,1.3125 3.769348,0 7.386395,-0.6594 10.75,-1.84375 -0.08651,-0.13842 -0.153,-0.27745 -0.21875,-0.4375 L 58.375,77.65625 z"
         inkscape:connector-curvature="0"
         id="path4052"
         style="opacity:0.4;fill:#000000;fill-opacity:1;fill-rule:nonzero;stroke:none" />
      <path
         d="m 48,15.625 c -11.307179,0 -21.243566,5.808409 -27.03125,14.59375 0.253309,0.0081 0.447277,0.02484 0.6875,0.03125 C 27.523835,22.020559 37.123151,16.625 48,16.625 c 7.899669,0 15.130565,2.830113 20.75,7.53125 0.222447,-0.02875 0.454784,-0.03125 0.6875,-0.03125 0.14361,0 0.266965,-0.0087 0.40625,0 C 64.08548,18.84947 56.426314,15.625 48,15.625 z M 64.03125,30.34375 C 64.015699,30.517493 64,30.699351 64,30.875 c 0,2.66718 1.547224,4.926571 3.1875,7.59375 1.187521,2.078787 2.527996,4.724655 2.625,8.5 0.0081,-0.200645 0.03125,-0.400177 0.03125,-0.59375 0,-4.001201 -1.425177,-6.751224 -2.65625,-8.90625 -1.541052,-2.505835 -2.986255,-4.662955 -3.15625,-7.125 z m -31.0625,1.3125 c -0.151663,0.427256 -0.490146,0.803371 -1.09375,0.875 0,0 -1.737509,0.179166 -3.6875,0.28125 L 28.5,33.78125 c 1.802311,-0.106113 3.375,-0.25 3.375,-0.25 1.062676,-0.126107 1.389997,-1.137294 1.09375,-1.875 z m 24.3125,0 c -0.14941,0.431747 -0.516072,0.80281 -1.125,0.875 0,0 -1.739239,0.179166 -3.6875,0.28125 l 0.3125,0.96875 c 1.801065,-0.106113 3.375,-0.25 3.375,-0.25 1.061202,-0.125807 1.41789,-1.137811 1.125,-1.875 z m -19.8125,0.0625 c -0.267806,0.754201 0.07638,1.750633 1.125,1.8125 0,0 1.662158,0.179166 3.40625,0.28125 l 4.84375,13.375 0.1875,-0.53125 L 42,32.8125 c -1.744092,-0.102084 -3.40625,-0.28125 -3.40625,-0.28125 -0.610735,-0.03603 -0.972778,-0.378145 -1.125,-0.8125 z m 38.9375,0.75 c 0.05226,0.386622 0.09105,0.809776 0.125,1.21875 2.36326,4.393662 3.716474,9.403029 3.8125,14.71875 C 80.345444,48.269813 80.375,48.136842 80.375,48 c 0,-5.626771 -1.443451,-10.921865 -3.96875,-15.53125 z m -57.96875,2.375 C 16.642366,38.869175 15.625,43.307564 15.625,48 c 0,0.156143 0.02905,0.313129 0.03125,0.46875 0.07395,-4.496518 1.054291,-8.752451 2.78125,-12.625 l 15,41.0625 c 0.14876,0.07515 0.287431,0.177094 0.4375,0.25 L 18.4375,34.84375 z m 58.1875,1.5625 c -0.07107,3.135722 -0.731309,6.656802 -2.46875,11 l -9.875,28.5625 c 0.151549,-0.08835 0.287528,-0.190527 0.4375,-0.28125 l 9.4375,-27.28125 C 76.003291,43.789079 76.625,40.095648 76.625,36.8125 c 0,-0.140601 0.0021,-0.267933 0,-0.40625 z M 12.03125,48.5 C 12.028935,48.667833 12,48.831629 12,49 12,68.849416 28.151445,85 48,85 67.84942,85 84,68.849416 84,49 84,48.831629 83.971068,48.667833 83.96875,48.5 83.702241,68.121615 67.683848,84 48,84 28.31701,84 12.297418,68.121615 12.03125,48.5 z M 48.5625,50.84375 38.875,79.0625 c 0.104638,0.03078 0.207469,0.06398 0.3125,0.09375 l 9.375,-27.3125 9.8125,26.8125 c 0.124313,-0.04209 0.251365,-0.08147 0.375,-0.125 -0.08651,-0.13842 -0.153,-0.27745 -0.21875,-0.4375 l -9.96875,-27.25 z"
         inkscape:connector-curvature="0"
         id="path4057"
         style="opacity:0.3;fill:#ffffff;fill-opacity:1;fill-rule:nonzero;stroke:none" />
    </g>
    <rect
       ry="25"
       rx="25"
       id="rect3003"
       style="opacity:0.15;fill:#ffffff;fill-opacity:1"
       height="92"
       width="92"
       y="958.36218"
       x="-96"
       clip-path="url(#clipPath3009)"
       transform="translate(98,3.8281269e-7)" />
  </g>
</svg>

<?xml version="1.0" encoding="UTF-8" standalone="no"?>
<!-- Created with Inkscape (http://www.inkscape.org/) -->
<svg id="svg11037" xmlns:rdf="http://www.w3.org/1999/02/22-rdf-syntax-ns#" xmlns="http://www.w3.org/2000/svg" height="96" width="96" version="1.1" xmlns:cc="http://creativecommons.org/ns#" xmlns:xlink="http://www.w3.org/1999/xlink" xmlns:dc="http://purl.org/dc/elements/1.1/">
 <defs id="defs11039">
  <linearGradient id="linearGradient11642" y2="1046.1" gradientUnits="userSpaceOnUse" y1="962.62" gradientTransform="matrix(1.15 0 0 1.15 -7.1999 -150.65)" x2="48" x1="48">
   <stop id="stop3647" style="stop-color:#0f466f" offset="0"/>
   <stop id="stop3649" style="stop-color:#2e72a7" offset="1"/>
  </linearGradient>
  <linearGradient id="linearGradient2928" y2="12" gradientUnits="userSpaceOnUse" x2="48" y1="84" x1="48">
   <stop id="stop4064" style="stop-color:#dfdfdf" offset="0"/>
   <stop id="stop4066" style="stop-color:#fff" offset="1"/>
  </linearGradient>
  <clipPath id="clipPath3009" clipPathUnits="userSpaceOnUse">
   <path id="path3011" style="opacity:.15;fill:#fff" d="m-2 956.36h-96v33.562l96 25.687v-59.25z"/>
  </clipPath>
 </defs>
 <metadata id="metadata11042">
  <rdf:RDF>
   <cc:Work rdf:about="">
    <dc:format>image/svg+xml</dc:format>
    <dc:type rdf:resource="http://purl.org/dc/dcmitype/StillImage"/>
    <dc:title/>
   </cc:Work>
  </rdf:RDF>
 </metadata>
 <g id="layer1" transform="translate(0 -956.36)">
  <rect id="rect3867" style="fill:url(#linearGradient11642)" rx="25" ry="25" height="92" width="92" y="958.36" x="2"/>
  <g id="layer4" transform="translate(0 956.36)">
   <path id="path4048" style="fill:url(#linearGradient2928)" d="m47.989 12c-19.848 0-35.989 16.162-35.989 36.011s16.141 35.989 35.989 35.989c19.85 0 36.011-16.14 36.011-35.989s-16.161-36.011-36.011-36.011zm0 3.6335c8.4263 0 16.108 3.2243 21.866 8.4998-0.13928-0.0087-0.26732-0.02163-0.41093-0.02163-3.1793 0-5.4503 2.7779-5.4503 5.7531 0 2.6672 1.5391 4.9243 3.1793 7.5915 1.2311 2.155 2.6819 4.9096 2.6819 8.9108 0 2.7693-0.82533 6.2626-2.4656 10.468l-3.244 10.793-11.679-34.8c1.9483-0.10208 3.6984-0.30279 3.6984-0.30279 1.7441-0.20676 1.5278-2.7623-0.21628-2.6603 0 0-5.2236 0.41093-8.608 0.41093-3.1802 0-8.5431-0.41093-8.5431-0.41093-1.745-0.10208-1.9396 2.5573-0.19465 2.6603 0 0 1.6515 0.20071 3.3956 0.30279l5.04 13.82-7.094 21.239-11.766-35.059c1.95-0.10208 3.6984-0.30279 3.6984-0.30279 1.7424-0.20676 1.5278-2.7623-0.21628-2.6603 0 0-5.2453 0.41093-8.6296 0.41093-0.60732 0-1.3167-0.01903-2.0763-0.04326 5.788-8.785 15.728-14.598 27.035-14.598zm28.419 16.848c2.5253 4.6094 3.9579 9.9022 3.9579 15.529 0 11.94-6.4694 22.356-16.091 27.965l9.884-28.571c1.847-4.6172 2.4656-8.3095 2.4656-11.593 0-1.1913-0.077-2.3004-0.21628-3.3307zm-57.963 2.357 15.421 42.305c-10.797-5.245-18.232-16.322-18.232-29.133 0-4.6924 1.0165-9.1461 2.8117-13.172zm30.128 16.005 9.9489 27.251c0.06575 0.16005 0.12977 0.29415 0.21628 0.43257-3.3636 1.1844-6.9798 1.8384-10.749 1.8384-3.1759 0-6.2272-0.46631-9.1271-1.3193l9.711-28.203z"/>
   <path id="path4052" style="opacity:.4" d="m48 11c-19.849 0-36 16.151-36 36 0 0.16557 0.02901 0.33495 0.03125 0.5 0.271-19.617 16.289-35.5 35.969-35.5 19.681 0 35.698 15.883 35.969 35.5 0.002-0.165 0.031-0.334 0.031-0.5 0-19.849-16.151-36-36-36zm20.75 12.156c-2.817 0.364-4.75 2.962-4.75 5.719 0 0.15063 0.02169 0.28934 0.03125 0.4375 0.26114-2.7566 2.4256-5.1875 5.4062-5.1875 0.14361 0 0.26696-0.0087 0.40625 0-0.36-0.33-0.719-0.655-1.094-0.969zm-37.094 5.719s-5.2406 0.40625-8.625 0.40625c-0.40478 0-0.89488-0.01844-1.375-0.03125-0.23214 0.32559-0.46723 0.6344-0.6875 0.96875 0.75958 0.02423 1.4552 0.0625 2.0625 0.0625 3.3844 0 8.625-0.40625 8.625-0.40625 0.68036-0.03982 1.123 0.30942 1.3125 0.78125 0.28613-0.80606-0.17261-1.848-1.3125-1.7812zm6.8438 0c-0.91042 0.13062-1.2868 1.1147-1.0312 1.8438 0.17784-0.50083 0.64741-0.88449 1.3438-0.84375 0 0 5.3511 0.40625 8.5312 0.40625 3.3844 0 8.5938-0.40625 8.5938-0.40625 0.68289-0.03997 1.1553 0.30687 1.3438 0.78125 0.27853-0.80486-0.20859-1.8477-1.3438-1.7812 0 0-5.2094 0.40625-8.5938 0.40625-3.1802 0-8.5312-0.40625-8.5312-0.40625-0.10906-0.0064-0.21565-0.0139-0.3125 0zm37.906 3.5938c0.12284 0.90876 0.2029 1.9039 0.21875 2.9375 0.0045-0.1978 0-0.39894 0-0.59375 0-0.74428-0.03723-1.444-0.09375-2.125-0.0392-0.07289-0.08525-0.1462-0.125-0.21875zm-47.906 0.312c-0.11728 0.0069-0.19337 0.02501-0.3125 0.03125l11.75 35.063 7.093-21.219-0.187-0.468-6.906 20.687-11.438-34.094zm24.281 0c-0.1172 0.0069-0.19347 0.02501-0.3125 0.03125l11.688 34.813 3.219-10.781c1.6403-4.2054 2.4688-7.6995 2.4688-10.469 0-0.14155-0.02769-0.26779-0.03125-0.40625-0.10727 2.6698-0.91188 5.9636-2.4375 9.875l-3.219 10.781-11.375-33.844zm27.562 14.625c-0.14382 11.581-6.3623 21.678-15.625 27.281l-0.4375 1.2812c9.623-5.609 16.095-16.028 16.095-27.968 0-0.19959-0.02766-0.39501-0.03125-0.59375zm-64.688 0.0625c-0.002 0.178-0.03 0.354-0.03 0.532 0 12.811 7.4532 23.911 18.25 29.156l-0.4375-1.25c-10.424-5.265-17.606-16.002-17.782-28.437zm42.72 30.188c-3.258 1.103-6.744 1.719-10.375 1.719-3.0613 0-6.0067-0.42352-8.8125-1.2188l-0.313 0.906c2.8999 0.85301 5.9491 1.3125 9.125 1.3125 3.7693 0 7.3864-0.6594 10.75-1.8438-0.08651-0.13842-0.153-0.27745-0.21875-0.4375l-0.156-0.437z"/>
   <path id="path4057" style="opacity:.3;fill:#fff" d="m48 15.625c-11.307 0-21.244 5.8084-27.031 14.594 0.25331 0.0081 0.44728 0.02484 0.6875 0.03125 5.868-8.229 15.467-13.625 26.344-13.625 7.8997 0 15.131 2.8301 20.75 7.5312 0.22245-0.02875 0.45478-0.03125 0.6875-0.03125 0.14361 0 0.26696-0.0087 0.40625 0-5.759-5.276-13.418-8.5-21.844-8.5zm16.031 14.719c-0.015 0.173-0.031 0.355-0.031 0.531 0 2.6672 1.5472 4.9266 3.1875 7.5938 1.1875 2.0788 2.528 4.7247 2.625 8.5 0.0081-0.20064 0.03125-0.40018 0.03125-0.59375 0-4.0012-1.4252-6.7512-2.6562-8.9062-1.5411-2.5058-2.9863-4.663-3.1562-7.125zm-31.062 1.3125c-0.15166 0.42726-0.49015 0.80337-1.0938 0.875 0 0-1.7375 0.17917-3.6875 0.28125l0.312 0.969c1.8023-0.10611 3.375-0.25 3.375-0.25 1.0627-0.12611 1.39-1.1373 1.0938-1.875zm24.312 0c-0.14941 0.43175-0.51607 0.80281-1.125 0.875 0 0-1.7392 0.17917-3.6875 0.28125l0.3125 0.96875c1.8011-0.10611 3.375-0.25 3.375-0.25 1.0612-0.12581 1.4179-1.1378 1.125-1.875zm-19.812 0.0625c-0.26781 0.7542 0.07638 1.7506 1.125 1.8125 0 0 1.6622 0.17917 3.4062 0.28125l4.8438 13.375 0.1875-0.53125-5.031-13.844c-1.7441-0.10208-3.4062-0.28125-3.4062-0.28125-0.61074-0.03603-0.97278-0.37814-1.125-0.8125zm38.938 0.75c0.05226 0.38662 0.09105 0.80978 0.125 1.2188 2.3633 4.3937 3.7165 9.403 3.8125 14.719 0.001-0.136 0.031-0.269 0.031-0.406 0-5.6268-1.4435-10.922-3.9688-15.531zm-57.969 2.375c-1.796 4.026-2.813 8.465-2.813 13.157 0 0.15614 0.02905 0.31313 0.03125 0.46875 0.07395-4.4965 1.0543-8.7525 2.7812-12.625l15 41.062c0.14876 0.07515 0.28743 0.17709 0.4375 0.25l-15.436-42.312zm58.188 1.5625c-0.07107 3.1357-0.73131 6.6568-2.4688 11l-9.875 28.562c0.15155-0.08835 0.28753-0.19053 0.4375-0.28125l9.4375-27.281c1.845-4.617 2.467-8.31 2.467-11.594 0-0.1406 0.0021-0.26793 0-0.40625zm-64.595 12.094c-0.002 0.168-0.031 0.332-0.031 0.5 0 19.849 16.151 36 36 36s36-16.151 36-36c0-0.168-0.029-0.332-0.031-0.5-0.267 19.622-16.285 35.5-35.969 35.5-19.683 0-35.703-15.878-35.969-35.5zm36.531 2.344-9.687 28.218c0.10464 0.03078 0.20747 0.06398 0.3125 0.09375l9.375-27.312 9.8125 26.812c0.12431-0.04209 0.25136-0.08147 0.375-0.125-0.08651-0.13842-0.153-0.27745-0.21875-0.4375l-9.9688-27.25z"/>
  </g>
  <rect id="rect3003" style="opacity:.15;fill:#fff" transform="translate(98 3.8281e-7)" clip-path="url(#clipPath3009)" rx="25" ry="25" height="92" width="92" y="958.36" x="-96"/>
 </g>
</svg>
